packages/core/src/svgs/rvc.svg

<svg width="24" height="24" viewBox="0 0 24 24" fill="none" xmlns="http://www.w3.org/2000/svg">
<g clip-path="url(#clip0_31_18180)">
<path d="M0 0H24V24H0V0Z" fill="white"/>
<path d="M14.7496 6.27539L10.2312 7.72696L15.2472 8.38996L14.7501 6.27582L14.7496 6.27539Z" fill="#A6FFA9"/>
<path d="M10.1486 7.60187L10.7285 6.52401L13.2159 5.5293L10.1486 7.60187Z" fill="#27A986"/>
<path d="M10.7285 6.4413L11.0191 5.61201L13.0505 5.5293L10.7285 6.4413Z" fill="#054034"/>
<path d="M14.0867 5.81945L14.3768 5.03174L14.7085 6.1096L14.0867 5.81945Z" fill="#27A986"/>
<path d="M14.0451 5.81979L14.3352 5.03207L12.8845 4.41064L14.0451 5.81979Z" fill="#A6FFA9"/>
<path d="M12.677 4.32722L11.6819 4.78322L13.9619 5.77793L12.677 4.32722ZM13.796 4.28564H12.7182L14.3767 4.94907L13.7956 4.28564H13.796Z" fill="#27A986"/>
<path d="M14.4601 5.0735V4.94922L16.6762 5.5715C16.7169 5.58265 16.7165 5.6405 16.6754 5.65122L14.7909 6.15136L14.4592 5.0735H14.4601Z" fill="#A6FFA9"/>
<path d="M11.0186 5.52964L11.682 4.86621L13.092 5.48807L11.019 5.52964H11.0186Z" fill="#27A986"/>
<path d="M13.2986 5.5708L10.1897 7.64337L14.7086 6.19266L13.2986 5.5708Z" fill="#054034"/>
<path d="M15.2472 8.47307L10.1069 7.76807L14.0866 16.6395L15.2472 8.47307Z" fill="#27A986"/>
<path d="M14.1693 16.4739L15.3303 8.55565L16.076 9.46765L14.1693 16.4739ZM14.0035 16.6398L10.0649 7.85107L11.516 16.5566L14.0035 16.6398ZM11.4749 16.5982L10.0238 7.89265L7.45361 19.5001L11.4749 16.5982Z" fill="#054034"/>
</g>
<defs>
<clipPath id="clip0_31_18180">
<rect width="24" height="24" fill="white"/>
</clipPath>
</defs>
</svg>

<svg xmlns="http://www.w3.org/2000/svg" width="24" height="24" fill="none" viewBox="0 0 24 24"><g clip-path="url(#a)"><path fill="#fff" d="M0 0h24v24H0z"/><path fill="#A6FFA9" d="M14.75 6.275 10.23 7.727l5.016.663z"/><path fill="#27A986" d="m10.149 7.602.58-1.078 2.487-.995z"/><path fill="#054034" d="m10.729 6.441.29-.829 2.031-.083z"/><path fill="#27A986" d="m14.087 5.82.29-.788.332 1.078z"/><path fill="#A6FFA9" d="m14.045 5.82.29-.788-1.45-.621z"/><path fill="#27A986" d="m12.677 4.327-.995.456 2.28.995zm1.119-.041h-1.078l1.659.663z"/><path fill="#A6FFA9" d="M14.46 5.074v-.125l2.216.623c.04.01.04.069 0 .08l-1.885.5z"/><path fill="#27A986" d="m11.019 5.53.663-.664 1.41.622z"/><path fill="#054034" d="m13.299 5.57-3.11 2.073 4.52-1.45z"/><path fill="#27A986" d="m15.247 8.473-5.14-.705 3.98 8.872z"/><path fill="#054034" d="m14.17 16.474 1.16-7.918.746.912zm-.166.166-3.94-8.789 1.452 8.706zm-2.53-.042-1.45-8.705L7.454 19.5z"/></g><defs><clipPath id="a"><path fill="#fff" d="M0 0h24v24H0z"/></clipPath></defs></svg>
